X: 30201
T: Old Grey Cat
R: reel
M: 4/4
K: Edorian
d2|:e2e2 E2EF|GFGA BABc|d2d2 D2DE|FAdB AFED|
e2e2 E2EF|GFGA BABc|dcBA BAGF|1 E4- E2d2:|2 E4- E2A2||
|:B2e2 e2d2|Bdef g2(3BcB|A2d2 d2(3BcB|Adde f2d2|
e2B2 g2B2|a2A2 b2ba|gfed BGf2|1 e4- e2A2:|2 e4- e2f2||

